; generated by PrusaSlicer 2.5.2+win64 on 2023-05-22 at 07:44:12 UTC


;
;
; 

; external perimeters extrusion width = 0.45mm
; perimeters extrusion width = 0.45mm
; infill extrusion width = 0.45mm
; solid infill extrusion width = 0.45mm
; top infill extrusion width = 0.40mm
; support material extrusion width = 0.35mm
; first layer extrusion width = 0.42mm

M73 P0 R309
M73 Q0 S310
M201 X1000 Y1000 Z200 E5000 ; sets maximum accelerations, mm/sec^2
M203 X200 Y200 Z12 E120 ; sets maximum feedrates, mm / sec
M204 P1250 R1250 T1250 ; sets acceleration (P, T) and retract acceleration (R), mm/sec^2
M205 X8.00 Y8.00 Z0.40 E4.50 ; sets the jerk limits, mm/sec
M205 S0 T0 ; sets the minimum extruding and travel feed rate, mm/sec
M107
;TYPE:Custom
M862.3 P "MK3S" ; printer model check
M862.1 P0.4 ; nozzle diameter check
M115 U3.12.2 ; tell printer latest fw version
G90 ; use absolute coordinates
M83 ; extruder relative mode
M104 S215 ; set extruder temp
M140 S60 ; set bed temp
M190 S60 ; wait for bed temp
M109 S215 ; wait for extruder temp
G28 W ; home all without mesh bed level
G80 ; mesh bed leveling

G1 Z0.2 F720
G1 Y-3 F1000 ; go outside print area
G92 E0
G1 X60 E9 F1000 ; intro line
G1 X100 E12.5 F1000 ; intro line

G92 E0
M221 S95

; Don't change E values below. Excessive value can damage the printer.
M907 E430 ; set extruder motor current
G21 ; set units to millimeters
G90 ; use absolute coordinates
M83 ; use relative distances for extrusion
M900 K0.05 ; Filament gcode LA 1.5
M900 K30 ; Filament gcode LA 1.0
M107
;LAYER_CHANGE
;Z:0.2
;HEIGHT:0.2
;BEFORE_LAYER_CHANGE
G92 E0.0
;0.2


G1 E-.8 F2100
G1 Z.4 F720
;AFTER_LAYER_CHANGE
;0.2
G1 X40.265 Y22.891 F10800
G1 Z.2 F720
G1 E.8 F2100
M204 S800
;TYPE:Skirt/Brim
;WIDTH:0.42
G1 F1200
G1 X41.077 Y21.79 E.0429
G1 X41.517 Y21.336 E.01982
G1 X42.402 Y20.637 E.03538
G1 X43.329 Y20.06 E.03424
G1 X44.762 Y19.439 E.04897
G1 X46.404 Y19.127 E.05239
G1 X203.549 Y19.128 E4.92719
G1 X205.086 Y19.401 E.04894
G1 X206.509 Y19.976 E.04813
G1 X207.568 Y20.614 E.03876
G1 X208.483 Y21.336 E.03655
G1 X208.923 Y21.79 E.01982
G1 X209.735 Y22.891 E.0429
G1 X210.04 Y23.445 E.01982
G1 X210.631 Y25.109 E.05537
G1 X210.872 Y26.774 E.05275
G1 X210.872 Y183.226 E4.90543
G1 X210.631 Y184.891 E.05275
G1 X210.04 Y186.555 E.05537
G1 X209.735 Y187.109 E.01982
G1 X208.923 Y188.21 E.0429
G1 X208.483 Y188.664 E.01982
G1 X207.598 Y189.363 E.03538
G1 X206.671 Y189.94 E.03424
G1 X205.238 Y190.561 E.04896
G1 X203.602 Y190.873 E.05221
G1 X41.231 Y191.257 E5.09106
G1 X39.55 Y190.561 E.05704
M73 P0 R308
G1 X39.439 Y190.45 E.0049
G1 X38.743 Y188.769 E.05704
G1 X39.128 Y26.768 E5.07944
G1 X39.369 Y25.109 E.05257
G1 X39.96 Y23.445 E.05537
G1 X40.236 Y22.944 E.01794
M204 S1000
;WIPE_START
G1 F8640
G1 X41.077 Y21.79 E-.32964
G1 X41.517 Y21.336 E-.14593
G1 X42.402 Y20.637 E-.26052
G1 X42.49 Y20.583 E-.02391
;WIPE_END
G1 E-.04 F2100
G1 Z.6 F720
G1 X42.521 Y24.369 F10800
G1 Z.2 F720
G1 E.8 F2100
M204 S800
G1 F1200
G1 X43.106 Y23.553 E.03147
G1 X44.725 Y22.344 E.06337
G1 X46.615 Y21.789 E.06175
G1 X203.305 Y21.794 E4.9129
G1 X204.381 Y21.984 E.03426
G1 X205.404 Y22.402 E.03466
G1 X206.832 Y23.49 E.05627
G1 X207.455 Y24.329 E.03279
G1 X207.892 Y25.259 E.03221
G1 X208.208 Y26.791 E.04904
G1 X208.208 Y183.208 E4.90436
G1 X207.894 Y184.734 E.04883
M73 Q0 S309
G1 X207.479 Y185.631 E.031
G1 X206.894 Y186.447 E.03147
G1 X205.275 Y187.656 E.06338
G1 X203.385 Y188.211 E.06174
G1 X46.782 Y188.208 E4.91018
G1 X45.04 Y187.823 E.05593
G1 X43.54 Y186.879 E.05557
G1 X42.425 Y185.503 E.05554
G1 X41.978 Y184.367 E.03827
G1 X41.792 Y183.194 E.03724
G1 X41.792 Y26.791 E4.90388
G1 X42.106 Y25.266 E.04883
G1 X42.496 Y24.423 E.02912
M204 S1000
G1 X42.838 Y24.582 F10800
M204 S800
G1 F1200
G1 X43.395 Y23.797 E.03017
G1 X44.865 Y22.695 E.05761
G1 X46.643 Y22.166 E.05814
G1 X203.288 Y22.171 E4.9115
G1 X204.294 Y22.351 E.03205
G1 X205.237 Y22.741 E.03201
G1 X206.545 Y23.736 E.05151
G1 X207.141 Y24.538 E.03134
G1 X207.54 Y25.398 E.02972
G1 X207.831 Y26.81 E.04521
G1 X207.831 Y183.19 E4.90317
G1 X207.543 Y184.595 E.04499
M73 P0 R307
G1 X207.144 Y185.456 E.02973
G1 X206.605 Y186.203 E.02889
G1 X205.135 Y187.305 E.05761
G1 X203.357 Y187.834 E.05814
G1 X46.803 Y187.831 E4.90865
G1 X45.154 Y187.462 E.05297
G1 X43.812 Y186.616 E.04974
G1 X42.764 Y185.336 E.05189
G1 X42.347 Y184.286 E.03541
G1 X42.169 Y183.178 E.03517
G1 X42.169 Y26.81 E4.9028
G1 X42.457 Y25.405 E.04499
G1 X42.813 Y24.636 E.02655
M204 S1000
G1 X43.153 Y24.792 F10800
M204 S800
G1 F1200
G1 X43.683 Y24.041 E.02883
G1 X45.063 Y23.018 E.05385
G1 X46.67 Y22.544 E.05253
G1 X203.271 Y22.548 E4.91011
G1 X204.206 Y22.719 E.0298
M73 Q0 S308
G1 X205.069 Y23.079 E.02933
G1 X206.293 Y24.018 E.04838
G1 X206.825 Y24.745 E.02823
G1 X207.189 Y25.535 E.02728
G1 X207.454 Y26.829 E.04141
G1 X207.454 Y183.171 E4.90198
G1 X207.191 Y184.458 E.0412
G1 X206.828 Y185.25 E.02733
G1 X206.317 Y185.959 E.02738
G1 X204.937 Y186.982 E.05385
G1 X203.331 Y187.456 E.05253
G1 X46.823 Y187.454 E4.90718
G1 X45.325 Y187.125 E.04808
G1 X44.082 Y186.352 E.04589
G1 X43.103 Y185.167 E.0482
G1 X42.716 Y184.204 E.03254
G1 X42.546 Y183.163 E.03308
G1 X42.546 Y26.829 E4.90173
G1 X42.809 Y25.542 E.0412
G1 X43.128 Y24.847 E.02398
M204 S1000
G1 X43.471 Y25.004 F10800
M204 S800
G1 F1200
G1 X43.507 Y24.924 E.00276
G1 X43.971 Y24.286 E.02473
G1 X45.203 Y23.369 E.04815
G1 X46.698 Y22.921 E.04892
G1 X203.254 Y22.925 E4.90871
G1 X204.079 Y23.074 E.0263
M73 P0 R306
G1 X204.901 Y23.418 E.02793
G1 X206.006 Y24.264 E.04363
G1 X206.491 Y24.92 E.02559
G1 X206.837 Y25.673 E.02598
G1 X207.077 Y26.848 E.0376
G1 X207.077 Y183.152 E4.90079
G1 X206.839 Y184.321 E.0374
G1 X206.493 Y185.076 E.02605
G1 X206.029 Y185.714 E.02473
G1 X204.797 Y186.631 E.04815
G1 X203.303 Y187.079 E.04892
G1 X46.843 Y187.077 E4.90569
G1 X45.494 Y186.786 E.04325
G1 X44.351 Y186.085 E.04204
G1 X43.44 Y184.997 E.04449
G1 X43.084 Y184.121 E.02964
G1 X42.923 Y183.147 E.03096
G1 X42.923 Y26.848 E4.90065
G1 X43.161 Y25.679 E.0374
M73 Q0 S307
G1 X43.446 Y25.059 E.02141
M204 S1000
G1 X43.786 Y25.213 F10800
M204 S800
G1 F1200
G1 X43.824 Y25.13 E.00285
G1 X44.259 Y24.532 E.02319
G1 X45.4 Y23.693 E.04441
G1 X46.725 Y23.298 E.04335
G1 X203.236 Y23.302 E4.90731
G1 X203.99 Y23.441 E.02403
G1 X204.732 Y23.755 E.02527
G1 X205.719 Y24.509 E.03893
G1 X206.175 Y25.128 E.02411
G1 X206.485 Y25.809 E.02346
G1 X206.7 Y26.867 E.03384
G1 X206.7 Y183.133 E4.89962
G1 X206.487 Y184.185 E.03365
M73 P1 R306
M73 Q1 S307
G1 X206.176 Y184.87 E.02358
G1 X205.741 Y185.468 E.02319
G1 X204.6 Y186.307 E.04441
G1 X203.275 Y186.702 E.04335
G1 X46.862 Y186.7 E4.90423
G1 X45.661 Y186.446 E.03849
G1 X44.618 Y185.817 E.03819
G1 X43.777 Y184.825 E.04078
G1 X43.452 Y184.037 E.02672
G1 X43.3 Y183.131 E.02881
G1 X43.3 Y26.867 E4.89956
G1 X43.513 Y25.815 E.03365
G1 X43.761 Y25.268 E.01885
M204 S1000
G1 X44.103 Y25.42 F10800
M204 S800
G1 F1200
G1 X44.14 Y25.336 E.00291
G1 X44.547 Y24.777 E.02165
G1 X45.541 Y24.044 E.03874
G1 X46.753 Y23.675 E.03973
G1 X203.218 Y23.679 E4.90585
G1 X203.899 Y23.808 E.02172
M73 P1 R305
G1 X204.561 Y24.092 E.02259
G1 X205.466 Y24.79 E.03584
G1 X205.858 Y25.332 E.02097
G1 X206.132 Y25.944 E.02101
G1 X206.323 Y26.886 E.03013
G1 X206.323 Y183.114 E4.89844
G1 X206.134 Y184.051 E.02994
G1 X205.86 Y184.664 E.02108
G1 X205.453 Y185.223 E.02165
G1 X204.459 Y185.956 E.03874
G1 X203.247 Y186.325 E.03973
G1 X46.882 Y186.323 E4.90271
G1 X45.771 Y186.084 E.03563
G1 X44.884 Y185.549 E.03249
G1 X44.113 Y184.651 E.03709
G1 X43.82 Y183.952 E.02377
G1 X43.677 Y183.115 E.02662
G1 X43.677 Y26.886 E4.89846
G1 X43.866 Y25.949 E.02995
M73 Q1 S306
G1 X44.078 Y25.475 E.01629
M204 S1000
G1 X44.42 Y25.626 F10800
M204 S800
G1 F1200
G1 X44.458 Y25.541 E.00291
G1 X44.834 Y25.024 E.02005
G1 X45.736 Y24.368 E.03498
G1 X46.781 Y24.052 E.03422
G1 X203.2 Y24.056 E4.90441
G1 X203.806 Y24.174 E.01935
G1 X204.388 Y24.428 E.01994
G1 X205.178 Y25.035 E.03123
G1 X205.522 Y25.505 E.01826
G1 X205.779 Y26.079 E.01971
G1 X205.946 Y26.904 E.02641
G1 X205.946 Y183.096 E4.89727
G1 X205.78 Y183.918 E.0263
G1 X205.542 Y184.459 E.01854
G1 X205.166 Y184.976 E.02005
G1 X204.264 Y185.632 E.03498
G1 X203.219 Y185.948 E.03421
G1 X46.901 Y185.946 E4.90125
G1 X45.935 Y185.744 E.03094
G1 X45.147 Y185.277 E.02871
G1 X44.448 Y184.475 E.03337
G1 X44.188 Y183.865 E.02078
G1 X44.054 Y183.099 E.0244
G1 X44.054 Y26.904 E4.89736
G1 X44.22 Y26.082 E.0263
M73 P1 R304
G1 X44.396 Y25.681 E.01375
M204 S1000
G1 X44.74 Y25.829 F10800
M204 S800
G1 F1200
G1 X44.778 Y25.741 E.00302
G1 X45.084 Y25.307 E.01664
G1 X45.88 Y24.718 E.03105
G1 X46.81 Y24.429 E.03054
G1 X203.181 Y24.433 E4.90289
G1 X203.71 Y24.539 E.01693
G1 X204.215 Y24.763 E.01731
G1 X204.89 Y25.28 E.02666
G1 X205.206 Y25.711 E.01675
G1 X205.426 Y26.211 E.01714
G1 X205.568 Y26.923 E.02276
G1 X205.568 Y183.077 E4.89611
G1 X205.426 Y183.787 E.02271
G1 X205.222 Y184.259 E.01613
G1 X204.916 Y184.693 E.01664
G1 X204.12 Y185.282 E.03105
G1 X203.19 Y185.571 E.03053
G1 X46.919 Y185.568 E4.89976
G1 X46.096 Y185.402 E.02634
M73 Q1 S305
G1 X45.408 Y185.003 E.02494
G1 X44.781 Y184.296 E.02963
G1 X44.555 Y183.776 E.01777
G1 X44.432 Y183.082 E.02213
G1 X44.432 Y26.923 E4.89625
G1 X44.574 Y26.213 E.02271
G1 X44.716 Y25.884 E.01123
M204 S1000
G1 X45.062 Y26.034 F10800
M204 S800
G1 F1200
G1 X45.116 Y25.909 E.00424
G1 X45.373 Y25.551 E.01383
G1 X46.025 Y25.067 E.02548
G1 X46.84 Y24.806 E.02683
G1 X203.161 Y24.81 E4.90133
G1 X203.612 Y24.904 E.01445
G1 X204.038 Y25.097 E.01465
G1 X204.636 Y25.56 E.02372
G1 X204.886 Y25.912 E.01353
G1 X205.071 Y26.342 E.01469
G1 X205.191 Y26.941 E.01918
G1 X205.191 Y183.059 E4.89494
G1 X205.072 Y183.656 E.0191
G1 X204.884 Y184.091 E.01484
G1 X204.627 Y184.449 E.01383
G1 X203.975 Y184.933 E.02548
G1 X203.16 Y185.194 E.02683
G1 X46.937 Y185.191 E4.89827
G1 X46.253 Y185.058 E.02184
G1 X45.666 Y184.726 E.02115
G1 X45.112 Y184.114 E.02588
G1 X44.922 Y183.686 E.0147
G1 X44.809 Y183.064 E.0198
G1 X44.809 Y26.941 E4.89512
G1 X44.928 Y26.344 E.0191
M73 P1 R303
G1 X45.038 Y26.089 E.00872
M204 S1000
G1 X45.383 Y26.234 F10800
M204 S800
G1 F1200
G1 X45.435 Y26.112 E.00417
G1 X45.661 Y25.797 E.01216
G1 X46.221 Y25.39 E.0217
G1 X46.869 Y25.183 E.02133
G1 X203.14 Y25.188 E4.89976
G1 X203.511 Y25.267 E.01189
G1 X203.859 Y25.43 E.01206
G1 X204.347 Y25.804 E.0193
G1 X204.548 Y26.081 E.01071
G1 X204.717 Y26.473 E.01338
G1 X204.814 Y26.96 E.01557
G1 X204.814 Y183.04 E4.89379
G1 X204.717 Y183.528 E.0156
G1 X204.565 Y183.888 E.01226
G1 X204.339 Y184.203 E.01216
G1 X203.779 Y184.61 E.0217
G1 X203.131 Y184.817 E.02133
G1 X46.954 Y184.814 E4.89683
G1 X46.406 Y184.712 E.01747
M73 Q1 S304
G1 X45.92 Y184.447 E.01736
G1 X45.442 Y183.928 E.02212
G1 X45.288 Y183.592 E.01159
G1 X45.186 Y183.046 E.01741
G1 X45.186 Y26.96 E4.89398
G1 X45.283 Y26.472 E.0156
G1 X45.36 Y26.289 E.00621
M204 S1000
G1 X45.707 Y26.436 F10800
M204 S800
G1 F1200
G1 X45.773 Y26.279 E.00532
G1 X45.946 Y26.044 E.00916
G1 X46.369 Y25.738 E.01637
G1 X46.901 Y25.56 E.01758
G1 X203.118 Y25.565 E4.89807
G1 X203.404 Y25.63 E.00922
M73 P2 R303
G1 X203.677 Y25.76 E.00947
G1 X204.091 Y26.083 E.01646
G1 X204.226 Y26.277 E.00741
G1 X204.362 Y26.601 E.01102
G1 X204.437 Y26.978 E.01207
G1 X204.437 Y183.022 E4.89263
G1 X204.362 Y183.399 E.01207
M73 Q2 S304
G1 X204.227 Y183.721 E.01093
G1 X204.054 Y183.956 E.00916
G1 X203.631 Y184.262 E.01637
G1 X203.099 Y184.44 E.01758
G1 X46.972 Y184.437 E4.89526
G1 X46.506 Y184.347 E.01487
M73 P2 R302
G1 X46.173 Y184.165 E.01192
G1 X45.768 Y183.737 E.01846
G1 X45.653 Y183.496 E.0084
G1 X45.563 Y183.028 E.01493
G1 X45.563 Y26.978 E4.89283
G1 X45.638 Y26.601 E.01207
G1 X45.684 Y26.491 E.00373
M204 S1000
G1 X46.031 Y26.638 F10800
M204 S800
G1 F1200
G1 X46.113 Y26.444 E.00658
G1 X46.197 Y26.327 E.00452
G1 X46.524 Y26.082 E.01281
G1 X46.935 Y25.937 E.01365
G1 X203.097 Y25.942 E4.89635
G1 X203.261 Y25.979 E.00527
G1 X203.497 Y26.092 E.00821
G1 X203.803 Y26.327 E.01208
G1 X203.887 Y26.444 E.00455
G1 X204.007 Y26.729 E.0097
G1 X204.06 Y26.997 E.00854
G1 X204.06 Y183.003 E4.89148
G1 X204.007 Y183.271 E.00854
M73 Q2 S303
G1 X203.887 Y183.556 E.0097
G1 X203.803 Y183.673 E.00452
G1 X203.476 Y183.918 E.01281
G1 X203.065 Y184.063 E.01365
G1 X46.991 Y184.06 E4.89359
G1 X46.609 Y183.984 E.01223
G1 X46.422 Y183.882 E.00668
G1 X46.09 Y183.54 E.01494
G1 X46.017 Y183.394 E.00511
G1 X45.94 Y183.009 E.01233
G1 X45.94 Y26.997 E4.89164
G1 X46.008 Y26.693 E.00976
M204 S1000
G1 X46.356 Y26.839 F10800
M204 S800
G1 F1200
G1 X46.478 Y26.579 E.00903
G1 X46.685 Y26.424 E.00812
G1 X46.972 Y26.314 E.00961
G1 X203.076 Y26.319 E4.89453
G1 X203.318 Y26.424 E.00828
G1 X203.522 Y26.578 E.00802
G1 X203.652 Y26.858 E.00967
G1 X203.683 Y27.015 E.00501
G1 X203.683 Y182.985 E4.89034
G1 X203.652 Y183.142 E.00501
G1 X203.522 Y183.421 E.00966
G1 X203.315 Y183.576 E.00812
G1 X203.028 Y183.686 E.00961
G1 X47.012 Y183.683 E4.89179
G1 X46.715 Y183.621 E.00951
M73 P2 R301
G1 X46.669 Y183.596 E.00164
G1 X46.404 Y183.331 E.01172
G1 X46.379 Y183.285 E.00164
G1 X46.317 Y182.988 E.00951
G1 X46.317 Y27.015 E4.89044
G1 X46.34 Y26.897 E.00376
M204 S1000
; printing object Box_Top_v1.stl id:0 copy 0
;WIPE_START
G1 F8640
G1 X46.478 Y26.579 E-.0801
G1 X46.685 Y26.424 E-.05977
G1 X46.972 Y26.314 E-.07077
G1 X49.351 Y26.314 E-.54936
;WIPE_END
G1 E-.04 F2100
G1 Z.6 F720
G1 X123.941 Y125.296 F10800
G1 Z.2 F720
G1 E.8 F2100
M204 S800
;TYPE:Support material
G1 F1200
G1 X123.319 Y125.828 E.02565
G1 X122.789 Y126.431 E.0252
G1 X122.151 Y126.496 E.02009
G1 X121.861 Y126.554 E.00927
G1 X120.902 Y126.846 E.03143
G1 X120.655 Y126.948 E.00838
G1 X119.678 Y127.48 E.03488
G1 X119.461 Y127.631 E.00828
G1 X118.545 Y128.441 E.03837
G1 X118.276 Y128.761 E.0131
G1 X117.133 Y128.931 E.03623
G1 X116.923 Y128.986 E.00682
G1 X115.592 Y129.543 E.04524
G1 X115.402 Y129.656 E.00692
G1 X114.668 Y130.182 E.02833
G1 X114.133 Y130.672 E.02273
G1 X113.846 Y130.981 E.01323
G1 X113.492 Y131.017 E.01116
G1 X112.553 Y131.232 E.03021
G1 X112.295 Y131.317 E.00854
G1 X111.309 Y131.761 E.0339
G1 X111.074 Y131.897 E.00851
G1 X110.267 Y132.476 E.03115
G1 X110.064 Y132.653 E.00845
G1 X109.409 Y133.34 E.02976
G1 X109.243 Y133.549 E.00837
G1 X108.719 Y134.352 E.03005
G1 X108.596 Y134.585 E.00826
G1 X108.207 Y135.536 E.03222
G1 X108.134 Y135.784 E.00811
G1 X107.936 Y136.841 E.03371
G1 X107.917 Y137.081 E.00757
G1 X107.928 Y138.052 E.03043
G1 X108.07 Y138.91 E.02727
G1 X108.381 Y139.85 E.03105
G1 X108.763 Y140.659 E.02804
G1 X109.011 Y141.101 E.01591
G1 X108.773 Y141.525 E.01522
G1 X108.493 Y142.103 E.02015
G1 X108.325 Y142.52 E.01409
G1 X108.062 Y143.381 E.02824
G1 X107.914 Y144.463 E.03423
G1 X107.94 Y145.414 E.02983
G1 X108.071 Y146.195 E.02483
G1 X108.373 Y147.133 E.0309
G1 X108.492 Y147.41 E.00944
G1 X109.001 Y148.325 E.03285
G1 X109.184 Y148.588 E.01003
G1 X109.795 Y149.315 E.02979
G1 X110.055 Y149.569 E.0114
G1 X110.73 Y150.124 E.02737
G1 X111.584 Y150.63 E.03115
G1 X112.533 Y150.999 E.03192
G1 X112.784 Y151.07 E.00817
G1 X113.883 Y151.256 E.03495
G1 X114.081 Y151.499 E.00982
G1 X114.319 Y151.735 E.01053
G1 X115.258 Y152.474 E.03744
G1 X115.598 Y152.679 E.01245
G1 X116.637 Y153.156 E.03584
G1 X117.524 Y153.396 E.02884
G1 X118.322 Y153.499 E.02521
G1 X118.723 Y153.959 E.01915
G1 X118.903 Y154.133 E.00785
G1 X119.655 Y154.735 E.0302
G1 X119.862 Y154.872 E.00779
G1 X120.716 Y155.327 E.03032
G1 X120.924 Y155.414 E.00709
G1 X122.083 Y155.748 E.03782
G1 X122.489 Y155.812 E.01286
G1 X122.853 Y155.828 E.01144
G1 X123.407 Y156.456 E.02626
G1 X123.658 Y156.683 E.0106
G1 X124.347 Y157.19 E.02684
G1 X123.094 Y157.192 E.03929
G1 X122.61 Y157.173 E.01519
G1 X119.952 Y156.864 E.08392
G1 X117.418 Y156.374 E.0809
G1 X115.022 Y155.708 E.07799
G1 X112.772 Y154.871 E.07526
G1 X110.68 Y153.868 E.07275
G1 X108.755 Y152.704 E.07053
G1 X107.007 Y151.385 E.06867
G1 X105.445 Y149.916 E.06723
G1 X104.149 Y148.375 E.06312
G1 X103.125 Y146.768 E.05974
G1 X102.358 Y145.074 E.0583
G1 X101.835 Y143.265 E.05906
G1 X101.761 Y142.825 E.014
G1 X101.708 Y142.297 E.01662
G1 X101.671 Y141.077 E.03829
G1 X101.73 Y139.84 E.03882
G1 X101.88 Y138.789 E.0333
