; generated by PrusaSlicer 2.5.2+win64 on 2023-05-22 at 07:44:51 UTC


;
;
; 

; external perimeters extrusion width = 0.45mm
; perimeters extrusion width = 0.45mm
; infill extrusion width = 0.45mm
; solid infill extrusion width = 0.45mm
; top infill extrusion width = 0.40mm
; support material extrusion width = 0.35mm
; first layer extrusion width = 0.42mm

M73 P0 R756
M73 Q0 S764
M201 X1000 Y1000 Z200 E5000 ; sets maximum accelerations, mm/sec^2
M203 X200 Y200 Z12 E120 ; sets maximum feedrates, mm / sec
M204 P1250 R1250 T1250 ; sets acceleration (P, T) and retract acceleration (R), mm/sec^2
M205 X8.00 Y8.00 Z0.40 E4.50 ; sets the jerk limits, mm/sec
M205 S0 T0 ; sets the minimum extruding and travel feed rate, mm/sec
M107
;TYPE:Custom
M862.3 P "MK3S" ; printer model check
M862.1 P0.4 ; nozzle diameter check
M115 U3.12.2 ; tell printer latest fw version
G90 ; use absolute coordinates
M83 ; extruder relative mode
M104 S215 ; set extruder temp
M140 S60 ; set bed temp
M190 S60 ; wait for bed temp
M109 S215 ; wait for extruder temp
G28 W ; home all without mesh bed level
G80 ; mesh bed leveling

G1 Z0.2 F720
G1 Y-3 F1000 ; go outside print area
G92 E0
G1 X60 E9 F1000 ; intro line
G1 X100 E12.5 F1000 ; intro line

G92 E0
M221 S95

; Don't change E values below. Excessive value can damage the printer.
M907 E430 ; set extruder motor current
G21 ; set units to millimeters
G90 ; use absolute coordinates
M83 ; use relative distances for extrusion
M900 K0.05 ; Filament gcode LA 1.5
M900 K30 ; Filament gcode LA 1.0
M107
;LAYER_CHANGE
;Z:0.2
;HEIGHT:0.2
;BEFORE_LAYER_CHANGE
G92 E0.0
;0.2


G1 E-.8 F2100
G1 Z.4 F720
;AFTER_LAYER_CHANGE
;0.2
G1 X39.439 Y19.55 F10800
G1 Z.2 F720
G1 E.8 F2100
M204 S800
;TYPE:Skirt/Brim
;WIDTH:0.42
G1 F1200
G1 X39.55 Y19.439 E.0049
G1 X41.231 Y18.743 E.05704
G1 X203.555 Y19.128 E5.08957
G1 X205.086 Y19.401 E.04876
M73 Q0 S763
G1 X206.509 Y19.976 E.04813
G1 X207.568 Y20.614 E.03876
G1 X208.483 Y21.336 E.03655
G1 X208.923 Y21.79 E.01982
G1 X209.735 Y22.891 E.0429
G1 X210.04 Y23.445 E.01982
G1 X210.631 Y25.109 E.05537
G1 X210.872 Y26.774 E.05275
G1 X210.872 Y183.226 E4.90543
G1 X210.631 Y184.891 E.05275
G1 X210.04 Y186.555 E.05537
G1 X209.735 Y187.109 E.01982
G1 X208.923 Y188.209 E.0429
G1 X208.483 Y188.664 E.01982
M73 P0 R755
G1 X207.382 Y189.514 E.04363
G1 X205.738 Y190.387 E.05836
G1 X204.123 Y190.814 E.05238
G1 X203.596 Y190.873 E.01661
G1 X46.774 Y190.872 E4.91705
G1 X45.109 Y190.631 E.05274
G1 X43.445 Y190.04 E.05538
G1 X42.891 Y189.735 E.01982
G1 X41.791 Y188.923 E.0429
G1 X41.336 Y188.483 E.01982
G1 X40.486 Y187.382 E.04362
G1 X39.613 Y185.738 E.05836
G1 X39.439 Y185.238 E.01661
G1 X39.127 Y183.602 E.05221
G1 X38.743 Y21.231 E5.09106
G1 X39.416 Y19.605 E.05516
M204 S1000
;WIPE_START
G1 F8640
G1 X39.55 Y19.439 E-.04917
G1 X41.231 Y18.743 E-.42009
G1 X42.49 Y18.746 E-.29074
;WIPE_END
G1 E-.04 F2100
G1 Z.6 F720
G1 X43.121 Y23.54 F10800
G1 Z.2 F720
G1 E.8 F2100
M204 S800
G1 F1200
G1 X44.497 Y22.425 E.05554
G1 X45.633 Y21.978 E.03827
G1 X46.807 Y21.792 E.03724
G1 X203.305 Y21.794 E4.90689
G1 X204.381 Y21.984 E.03426
G1 X205.404 Y22.402 E.03466
G1 X206.832 Y23.49 E.05627
G1 X207.455 Y24.329 E.03279
G1 X207.892 Y25.259 E.03221
G1 X208.208 Y26.791 E.04904
G1 X208.208 Y183.208 E4.90436
G1 X207.894 Y184.734 E.04883
G1 X207.479 Y185.631 E.031
G1 X206.894 Y186.447 E.03147
G1 X205.275 Y187.656 E.06338
G1 X203.385 Y188.211 E.06174
G1 X46.791 Y188.208 E4.90988
G1 X45.266 Y187.894 E.04883
G1 X44.369 Y187.479 E.031
G1 X43.553 Y186.894 E.03147
G1 X42.344 Y185.275 E.06338
G1 X41.789 Y183.385 E.06174
G1 X41.792 Y26.782 E4.91018
G1 X42.177 Y25.04 E.05593
M73 Q0 S762
G1 X43.089 Y23.591 E.05369
M204 S1000
G1 X43.384 Y23.812 F10800
M204 S800
G1 F1200
G1 X44.664 Y22.764 E.05189
G1 X45.714 Y22.347 E.03542
G1 X46.822 Y22.169 E.03518
G1 X203.288 Y22.171 E4.90588
G1 X204.294 Y22.351 E.03205
G1 X205.237 Y22.741 E.03201
G1 X206.545 Y23.736 E.05152
G1 X207.141 Y24.538 E.03134
G1 X207.54 Y25.398 E.02972
G1 X207.831 Y26.81 E.04521
G1 X207.831 Y183.19 E4.90317
G1 X207.543 Y184.595 E.04499
M73 P0 R754
G1 X207.144 Y185.456 E.02973
G1 X206.605 Y186.203 E.02889
G1 X205.135 Y187.305 E.05761
G1 X203.357 Y187.834 E.05814
G1 X46.81 Y187.831 E4.90842
G1 X45.405 Y187.543 E.04499
G1 X44.544 Y187.144 E.02973
G1 X43.797 Y186.605 E.02889
G1 X42.695 Y185.135 E.05761
G1 X42.166 Y183.357 E.05814
G1 X42.169 Y26.803 E4.90865
G1 X42.538 Y25.154 E.05297
G1 X43.352 Y23.863 E.04786
M204 S1000
G1 X43.648 Y24.083 F10800
M204 S800
G1 F1200
G1 X44.833 Y23.103 E.0482
G1 X45.796 Y22.716 E.03254
G1 X46.837 Y22.546 E.03308
G1 X203.27 Y22.548 E4.90486
G1 X204.206 Y22.718 E.0298
G1 X205.069 Y23.079 E.02933
G1 X206.293 Y24.018 E.04838
G1 X206.825 Y24.745 E.02823
G1 X207.189 Y25.535 E.02728
G1 X207.454 Y26.829 E.04141
G1 X207.454 Y183.171 E4.90198
G1 X207.191 Y184.458 E.0412
G1 X206.828 Y185.25 E.02733
G1 X206.317 Y185.959 E.02738
G1 X204.937 Y186.982 E.05385
G1 X203.331 Y187.456 E.05253
G1 X46.829 Y187.454 E4.90698
G1 X45.542 Y187.191 E.0412
M73 Q0 S761
G1 X44.75 Y186.828 E.02733
G1 X44.041 Y186.317 E.02738
G1 X43.018 Y184.937 E.05385
G1 X42.544 Y183.33 E.05253
G1 X42.546 Y26.823 E4.90718
G1 X42.875 Y25.325 E.04808
G1 X43.617 Y24.133 E.04401
M204 S1000
G1 X43.915 Y24.351 F10800
M204 S800
G1 F1200
G1 X45.003 Y23.44 E.04449
G1 X45.879 Y23.084 E.02964
G1 X46.853 Y22.923 E.03096
G1 X203.254 Y22.925 E4.90384
G1 X204.079 Y23.074 E.0263
M73 P0 R753
G1 X204.901 Y23.418 E.02793
G1 X206.006 Y24.264 E.04363
G1 X206.491 Y24.92 E.02559
G1 X206.837 Y25.673 E.02598
G1 X207.077 Y26.848 E.0376
G1 X207.077 Y183.152 E4.90079
G1 X206.839 Y184.321 E.0374
G1 X206.493 Y185.076 E.02605
G1 X206.029 Y185.714 E.02473
G1 X204.797 Y186.631 E.04816
G1 X203.303 Y187.079 E.04892
G1 X46.848 Y187.077 E4.90552
G1 X45.679 Y186.839 E.0374
G1 X44.924 Y186.493 E.02605
G1 X44.286 Y186.029 E.02473
G1 X43.369 Y184.797 E.04815
G1 X42.921 Y183.302 E.04892
G1 X42.923 Y26.843 E4.90569
G1 X43.214 Y25.494 E.04325
G1 X43.883 Y24.402 E.04015
M204 S1000
G1 X44.183 Y24.618 F10800
M204 S800
G1 F1200
G1 X45.175 Y23.777 E.04078
G1 X45.963 Y23.452 E.02672
G1 X46.869 Y23.3 E.02881
G1 X203.236 Y23.302 E4.90279
G1 X203.99 Y23.441 E.02403
G1 X204.732 Y23.755 E.02527
G1 X205.719 Y24.509 E.03893
G1 X206.175 Y25.128 E.02411
G1 X206.485 Y25.809 E.02346
G1 X206.7 Y26.867 E.03384
G1 X206.7 Y183.133 E4.89962
G1 X206.487 Y184.185 E.03365
G1 X206.176 Y184.87 E.02358
G1 X205.741 Y185.468 E.02319
G1 X204.6 Y186.307 E.04442
G1 X203.275 Y186.702 E.04335
G1 X46.867 Y186.7 E4.90408
G1 X45.815 Y186.487 E.03365
M73 Q0 S760
G1 X45.13 Y186.176 E.02358
G1 X44.532 Y185.741 E.02319
G1 X43.693 Y184.6 E.04441
G1 X43.298 Y183.275 E.04335
G1 X43.3 Y26.862 E4.90423
G1 X43.554 Y25.661 E.03849
M73 P0 R752
G1 X44.152 Y24.669 E.0363
M204 S1000
G1 X44.451 Y24.884 F10800
M204 S800
G1 F1200
G1 X45.349 Y24.113 E.03709
G1 X46.048 Y23.82 E.02377
G1 X46.885 Y23.677 E.02662
G1 X203.218 Y23.679 E4.90172
G1 X203.899 Y23.808 E.02172
G1 X204.561 Y24.092 E.02259
G1 X205.466 Y24.79 E.03585
G1 X205.858 Y25.332 E.02097
G1 X206.132 Y25.944 E.02101
G1 X206.323 Y26.886 E.03013
G1 X206.323 Y183.114 E4.89844
G1 X206.134 Y184.051 E.02994
G1 X205.86 Y184.664 E.02108
G1 X205.453 Y185.223 E.02165
G1 X204.459 Y185.956 E.03874
G1 X203.247 Y186.325 E.03973
G1 X46.886 Y186.323 E4.9026
G1 X45.949 Y186.134 E.02994
G1 X45.336 Y185.86 E.02108
G1 X44.777 Y185.453 E.02165
G1 X44.044 Y184.459 E.03874
G1 X43.675 Y183.247 E.03973
G1 X43.677 Y26.882 E4.90271
G1 X43.916 Y25.771 E.03563
G1 X44.42 Y24.935 E.03061
M204 S1000
G1 X44.723 Y25.147 F10800
M204 S800
G1 F1200
G1 X45.525 Y24.448 E.03337
G1 X46.135 Y24.188 E.02079
G1 X46.901 Y24.054 E.0244
G1 X203.2 Y24.056 E4.90062
G1 X203.806 Y24.174 E.01935
G1 X204.388 Y24.428 E.01994
G1 X205.178 Y25.035 E.03123
G1 X205.522 Y25.505 E.01826
G1 X205.779 Y26.079 E.01971
G1 X205.946 Y26.904 E.02641
G1 X205.946 Y183.096 E4.89727
G1 X205.78 Y183.918 E.0263
M73 Q0 S759
G1 X205.542 Y184.459 E.01854
G1 X205.166 Y184.976 E.02005
G1 X204.264 Y185.632 E.03498
G1 X203.219 Y185.948 E.03421
G1 X46.904 Y185.946 E4.90115
G1 X46.082 Y185.78 E.0263
G1 X45.541 Y185.542 E.01854
G1 X45.024 Y185.166 E.02005
G1 X44.368 Y184.264 E.03498
G1 X44.052 Y183.219 E.03422
G1 X44.054 Y26.901 E4.90125
G1 X44.256 Y25.935 E.03094
M73 P0 R751
G1 X44.692 Y25.199 E.02683
M204 S1000
G1 X44.997 Y25.408 F10800
M204 S800
G1 F1200
G1 X45.704 Y24.781 E.02963
G1 X46.224 Y24.555 E.01777
G1 X46.918 Y24.432 E.02213
G1 X203.181 Y24.433 E4.89949
G1 X203.71 Y24.539 E.01693
G1 X204.215 Y24.763 E.01731
G1 X204.89 Y25.28 E.02666
G1 X205.206 Y25.711 E.01675
G1 X205.426 Y26.211 E.01714
G1 X205.568 Y26.923 E.02276
G1 X205.568 Y183.077 E4.89611
G1 X205.426 Y183.787 E.02271
G1 X205.222 Y184.259 E.01613
G1 X204.916 Y184.693 E.01664
G1 X204.12 Y185.282 E.03105
G1 X203.19 Y185.571 E.03053
G1 X46.923 Y185.568 E4.89965
G1 X46.213 Y185.426 E.02271
G1 X45.741 Y185.222 E.01613
G1 X45.307 Y184.916 E.01664
G1 X44.718 Y184.12 E.03105
G1 X44.429 Y183.19 E.03054
G1 X44.432 Y26.919 E4.89976
G1 X44.598 Y26.096 E.02634
G1 X44.967 Y25.46 E.02305
M204 S1000
G1 X45.274 Y25.666 F10800
M204 S800
G1 F1200
G1 X45.886 Y25.112 E.02588
G1 X46.314 Y24.922 E.0147
G1 X46.936 Y24.809 E.0198
G1 X203.161 Y24.81 E4.89832
G1 X203.612 Y24.904 E.01445
G1 X204.038 Y25.097 E.01465
G1 X204.636 Y25.56 E.02372
G1 X204.886 Y25.912 E.01353
G1 X205.071 Y26.342 E.01469
G1 X205.191 Y26.941 E.01918
G1 X205.191 Y183.059 E4.89494
G1 X205.072 Y183.656 E.0191
M73 Q0 S758
G1 X204.884 Y184.091 E.01484
G1 X204.627 Y184.449 E.01383
G1 X203.975 Y184.933 E.02548
G1 X203.16 Y185.194 E.02682
G1 X46.941 Y185.191 E4.89813
G1 X46.344 Y185.072 E.0191
M73 P0 R750
G1 X45.909 Y184.884 E.01484
G1 X45.551 Y184.627 E.01383
G1 X45.067 Y183.975 E.02548
G1 X44.806 Y183.16 E.02683
G1 X44.809 Y26.937 E4.89827
G1 X44.942 Y26.253 E.02184
G1 X45.244 Y25.718 E.01927
M204 S1000
G1 X45.553 Y25.92 F10800
M204 S800
G1 F1200
G1 X46.072 Y25.442 E.02212
G1 X46.408 Y25.288 E.01159
G1 X46.954 Y25.186 E.01741
G1 X203.14 Y25.188 E4.89711
G1 X203.51 Y25.267 E.01189
G1 X203.859 Y25.43 E.01206
G1 X204.347 Y25.804 E.0193
G1 X204.548 Y26.081 E.01071
G1 X204.717 Y26.473 E.01338
G1 X204.814 Y26.96 E.01557
G1 X204.814 Y183.04 E4.89379
G1 X204.717 Y183.528 E.0156
G1 X204.565 Y183.888 E.01226
G1 X204.339 Y184.203 E.01216
G1 X203.779 Y184.61 E.0217
G1 X203.131 Y184.817 E.02133
G1 X46.96 Y184.814 E4.89663
G1 X46.472 Y184.717 E.0156
G1 X46.112 Y184.565 E.01226
G1 X45.797 Y184.339 E.01216
G1 X45.39 Y183.779 E.0217
G1 X45.183 Y183.131 E.02133
G1 X45.186 Y26.954 E4.89683
G1 X45.288 Y26.406 E.01747
G1 X45.525 Y25.973 E.01548
M204 S1000
G1 X45.835 Y26.173 F10800
M204 S800
G1 F1200
G1 X46.263 Y25.768 E.01846
G1 X46.504 Y25.653 E.0084
G1 X46.972 Y25.563 E.01493
G1 X203.118 Y25.565 E4.89584
G1 X203.404 Y25.63 E.00922
M73 Q0 S757
G1 X203.677 Y25.76 E.00947
G1 X204.091 Y26.083 E.01646
G1 X204.226 Y26.277 E.00741
G1 X204.362 Y26.601 E.01102
G1 X204.437 Y26.978 E.01207
G1 X204.437 Y183.022 E4.89263
G1 X204.362 Y183.399 E.01207
G1 X204.227 Y183.721 E.01093
G1 X204.054 Y183.956 E.00916
G1 X203.631 Y184.262 E.01637
G1 X203.099 Y184.44 E.01758
G1 X46.978 Y184.437 E4.89506
G1 X46.601 Y184.362 E.01207
M73 P0 R749
G1 X46.279 Y184.227 E.01093
G1 X46.044 Y184.054 E.00916
G1 X45.738 Y183.631 E.01637
G1 X45.56 Y183.099 E.01758
G1 X45.563 Y26.972 E4.89526
G1 X45.653 Y26.506 E.01487
G1 X45.806 Y26.225 E.01004
M204 S1000
G1 X46.118 Y26.422 F10800
M204 S800
G1 F1200
G1 X46.46 Y26.09 E.01494
G1 X46.606 Y26.017 E.00511
G1 X46.991 Y25.94 E.01233
G1 X203.097 Y25.942 E4.89457
G1 X203.261 Y25.979 E.00527
G1 X203.497 Y26.092 E.00821
G1 X203.803 Y26.327 E.01208
G1 X203.887 Y26.444 E.00455
G1 X204.007 Y26.729 E.0097
G1 X204.06 Y26.997 E.00854
G1 X204.06 Y183.003 E4.89148
G1 X204.007 Y183.271 E.00854
G1 X203.887 Y183.556 E.0097
G1 X203.803 Y183.673 E.00452
G1 X203.476 Y183.918 E.01281
G1 X203.065 Y184.063 E.01365
G1 X46.997 Y184.06 E4.89343
G1 X46.729 Y184.007 E.00854
G1 X46.444 Y183.887 E.0097
G1 X46.327 Y183.803 E.00452
G1 X46.082 Y183.476 E.01281
G1 X45.937 Y183.065 E.01365
G1 X45.94 Y26.991 E4.89359
G1 X46.016 Y26.609 E.01223
G1 X46.09 Y26.475 E.0048
M204 S1000
G1 X46.404 Y26.669 F10800
M204 S800
G1 F1200
G1 X46.669 Y26.404 E.01172
G1 X46.715 Y26.379 E.00164
G1 X47.012 Y26.317 E.00951
G1 X203.076 Y26.319 E4.89327
G1 X203.318 Y26.424 E.00828
M73 Q0 S756
G1 X203.522 Y26.578 E.00802
G1 X203.652 Y26.858 E.00967
G1 X203.683 Y27.015 E.00501
G1 X203.683 Y182.985 E4.89034
G1 X203.652 Y183.142 E.00501
G1 X203.522 Y183.421 E.00966
G1 X203.315 Y183.576 E.00812
G1 X203.028 Y183.686 E.00961
G1 X47.015 Y183.683 E4.8917
G1 X46.858 Y183.652 E.00501
M73 P0 R748
G1 X46.579 Y183.522 E.00966
G1 X46.424 Y183.315 E.00812
G1 X46.314 Y183.028 E.00961
G1 X46.317 Y27.012 E4.89179
G1 X46.378 Y26.722 E.00928
M204 S1000
; printing object Box_Bottom_v1.stl id:0 copy 0
;WIPE_START
M73 P1 R748
M73 Q1 S756
G1 F8640
G1 X46.669 Y26.404 E-.09952
G1 X46.715 Y26.379 E-.01211
G1 X47.012 Y26.317 E-.07007
G1 X49.516 Y26.317 E-.57831
;WIPE_END
G1 E-.04 F2100
G1 Z.6 F720
G1 X45.311 Y21.344 F10800
G1 Z.2 F720
G1 E.8 F2100
M204 S800
;TYPE:Support material
G1 F1200
G1 X45.212 Y21.373 E.00321
G1 X43.003 Y22.686 E.08056
G1 X42.686 Y23.004 E.0141
G1 X41.373 Y25.212 E.08056
G1 X41.309 Y25.462 E.00809
G1 X41.309 Y21.309 E.13023
G1 X45.462 Y21.309 E.13023
G1 X45.366 Y21.331 E.00311
M204 S1000
G1 X43.718 Y22.063 F10800
M204 S800
G1 F1200
G1 X43.718 Y21.648 E.01302
G1 X43.299 Y21.648 E.01314
G1 X43.299 Y22.115 E.01464
G1 X42.881 Y22.364 E.01528
G1 X42.881 Y21.648 E.02244
G1 X42.462 Y21.648 E.01314
G1 X42.462 Y22.748 E.03447
G1 X42.415 Y22.794 E.00204
G1 X42.043 Y23.421 E.02289
G1 X42.043 Y21.478 E.06092
M204 S1000
;WIPE_START
G1 F8640
G1 X42.043 Y23.421 E-.44861
G1 X42.415 Y22.794 E-.16858
G1 X42.462 Y22.748 E-.01504
G1 X42.462 Y22.194 E-.12776
;WIPE_END
G1 E-.04 F2100
G1 Z.6 F720
G1 X202.807 Y27.191 F10800
G1 Z.2 F720
G1 E.8 F2100
M204 S800
;TYPE:Perimeter
;WIDTH:0.419999
G1 F1200
G1 X202.807 Y182.809 E4.87928
G1 X47.191 Y182.807 E4.87923
G1 X47.193 Y27.193 E4.87919
G1 X202.747 Y27.191 E4.87731
M204 S1000
G1 X203.139 Y26.92 F10800
M204 S800
;TYPE:External perimeter
M73 Q1 S755
G1 F1200
G1 X203.185 Y27.054 E.00446
G1 X203.185 Y182.882 E4.88588
G1 X203.139 Y183.08 E.00637
G1 X202.967 Y183.186 E.00632
G1 X47.118 Y183.185 E4.88653
G1 X46.92 Y183.139 E.00637
M73 P1 R747
G1 X46.814 Y182.967 E.00632
G1 X46.815 Y27.067 E4.88811
G1 X46.819 Y27.016 E.0016
G1 X46.897 Y26.881 E.00489
G1 X47.036 Y26.815 E.00482
G1 X202.967 Y26.814 E4.88909
G1 X203.087 Y26.888 E.00444
M204 S1000
G1 X203.096 Y27.055 F10800
;WIPE_START
G1 F8640
G1 X203.185 Y27.054 E-.0444
G1 X203.185 Y30.153 E-.7156
;WIPE_END
G1 E-.04 F2100
G1 Z.6 F720
G1 X201.875 Y27.361 F10800
G1 Z.2 F720
G1 E.8 F2100
M204 S800
;TYPE:Solid infill
;WIDTH:0.420322
G1 F1200
G1 X202.468 Y27.954 E.02633
G1 X202.468 Y28.488 E.01675
G1 X201.511 Y27.53 E.04248
G1 X200.977 Y27.53 E.01675
G1 X202.468 Y29.021 E.06617
G1 X202.468 Y29.555 E.01675
G1 X200.443 Y27.53 E.08986
G1 X199.91 Y27.53 E.01675
G1 X202.468 Y30.089 E.11354
G1 X202.468 Y30.623 E.01675
G1 X199.376 Y27.53 E.13723
G1 X198.842 Y27.53 E.01675
G1 X202.468 Y31.156 E.16092
G1 X202.468 Y31.69 E.01675
G1 X198.308 Y27.53 E.1846
G1 X197.775 Y27.53 E.01675
G1 X202.468 Y32.224 E.20829
G1 X202.468 Y32.758 E.01675
G1 X197.241 Y27.53 E.23198
G1 X196.707 Y27.53 E.01675
G1 X202.468 Y33.291 E.25566
G1 X202.468 Y33.825 E.01675
G1 X196.174 Y27.53 E.27935
G1 X195.64 Y27.53 E.01675
G1 X202.468 Y34.359 E.30303
G1 X202.468 Y34.892 E.01675
G1 X195.106 Y27.531 E.32672
G1 X194.572 Y27.531 E.01675
G1 X202.468 Y35.426 E.35041
G1 X202.468 Y35.96 E.01675
G1 X194.039 Y27.531 E.37409
G1 X193.505 Y27.531 E.01675
G1 X202.468 Y36.494 E.39778
G1 X202.468 Y37.027 E.01675
G1 X192.971 Y27.531 E.42147
G1 X192.438 Y27.531 E.01675
G1 X202.468 Y37.561 E.44515
G1 X202.468 Y38.095 E.01675
G1 X191.904 Y27.531 E.46884
G1 X191.37 Y27.531 E.01675
G1 X202.468 Y38.629 E.49253
G1 X202.468 Y39.162 E.01675
G1 X190.836 Y27.531 E.51621
G1 X190.303 Y27.531 E.01675
G1 X202.468 Y39.696 E.5399
G1 X202.468 Y40.23 E.01675
